modules/coreui-icons-brand/icons/windows.svg

<svg version="1.1" xmlns="http://www.w3.org/2000/svg" width="32" height="32" viewBox="0 0 32 32">
<title>windows</title>
<path d="M0 4.599l13-1.796v12.599h-13zM14.599 2.599l17.401-2.599v15.197h-17.401zM0 16.803h13v12.599l-13-1.803zM14.599 16.803h17.401v15.197l-17.197-2.401z"></path>
</svg>

<svg xmlns="http://www.w3.org/2000/svg" width="32" height="32" viewBox="0 0 32 32"><path d="M0 4.599l13-1.796v12.599H0zm14.599-2L32 0v15.197H14.599zM0 16.803h13v12.599L0 27.599zm14.599 0H32V32l-17.197-2.401z"/></svg>
